X:1
T:Le bianche man
T:Le bianche man
T:Jhan Gero
T:Source : Trium vocum cantiones---Nürnberg---J.Petreius---1541. Editor : André Vierendeels (27/09/16).
T:Notes : Original clefs : C3, C4, F4 Editorial accidentals above the staff Original note values have been halved Square bracket indicates ligature m21 in B, second "A" notated as "G" in original print
T:#
T:©
T:©
T:©
T:©
T:©
C:Jhan Gero
Z:©
%%score [ 1 2 3 ]
L:1/8
Q:1/4=96
M:2/2
K:F
V:1 treble-8 nm="Tenor 1" snm="T 1"
V:2 treble-8 nm="Tenor 2" snm="T 2"
V:3 bass nm="Bass" snm="B"
V:1
 d4 c2 B2 | A3 B c2 d2 | c3 d e2 f2 | gfed e2 f2- | fe d4 c2 | d2 d2 f4 | d4 c2 c2 | f6 e2 | %8
w: Le bian- che|man con so- ti-|let- * * te|di- * * * * *||ta, le chio-|me d'or, e'l|por- ta-|
 d3 c/B/ A2 c2 | d2 c2 B4 | A4 e4 | e2 e2 f2 d2 | e4 e4 | z2 c2 f2 f2 | d2 d2 g3 f | ed c4 f2- | %16
w: ment' _ _ _ al-|te- * *|ro, il|sot- til ci- gli'e|ne- ro,|son quell' ar-|mi d'a- mor, _|_ _ _ ch'a-|
 f2 e4 d2- | d2 c2 d4 | d4 A3 B | c2 A2 G2 A2 | B2 A2 FG A2- | A2 B2 c2 d2- | d2 cB A4 | %23
w: * mar m'in-|* vi- ta,|po- scia'l di-|vin, e bel can-|di- do se- * *||* * * no,|
 z2 c2 c2 c2 | d4 e2 e2 | f2 f2 d2 g2- | gfed e2 f2- | fe d4 c2 | d4 z2 e2 | f6 e2 | d2 d2 c4 | %31
w: in cui s'an-|ni- da doi|po- met- ti d'o-|||ro, mi|fa di|ment' u- sar|
 c4 d3 c | B4 A4 | z2 c2 c2 c2 | f2 f2 e4 | e4 z2 e2 | g2 g2 d2 d2 | f2 f2 c3 d | ef g3 f f2- | %39
w: e ve- nir|me- no,|e quell' al-|mo de- co-|ro, che|piu d'o- gni the-|sor si coll' _|_ _ e _ pre-|
 f2 e2 f4- | f4 z2 f2 | e2 d2 c3 B | A3 B cd e2- | ed d4 c2 | d4 z2 f2 | e2 d2 c3 B | A3 B cd e2- | %47
w: * * za,|_ m'in-|vo- la l'alm'- el|cor in _ _ pez-|* zi spez- *|za, m'in-|vo- la l'al- m'el|cor im- * * pez-|
 ed d4 c2 | d2 B2 B2 A2 | B4 A4- | A8 |] %51
w: * zi spez- *|za, in spez- zi|spez- za.|_|
V:2
 z8 | z8 | A4 G2 F2 | E3 F G2 A2 | F2 G2 E4 | F3 G A4- | A4 A4 | B4 G4 | F2 F2 F2 E2 | D2 F4 E2 | %10
w: ||Le bian- che|man con so- til-|let _ _|_ _ te,|_ le|chio- me|d'or, e'l por- ta-|ment' al- te-|
 F4 z2 c2 | c2 c2 A2 B2 | c8 | A4 z2 F2 | B2 B2 G2 G2 | c3 B AG F2- | F2 A2 G2 F2 | E4 D4- | %18
w: ro, il|sot- til ci- gli'e|ne-|ro, son|quell' ar- mi d'a-|mor, _ _ _ _|_ ch'a- mar m'in-|vi- ta,|
 D4 z4 | A4 E2 F2 | G2 F2 D2 E2 | F2 D2 C2 F2- | F2 E2 F4 | A4 A2 A2 | B4 c4 | z2 A2 B2 B2 | %26
w: _|po- scia'l di-|vin' e bel can-|di- * do se-|* * no,|in cui s'an-|ni- da|doi po- met-|
 G2 c3 BAG | F2 G2 E4 | D2 A2 A2 G2 | A2 B2 c4 | F3 G AB A2- | AG G3 F F2- | F2 E2 F4 | %33
w: ti d'o- * * *||ro, mi fai di|ment' u- sar|e _ _ _ ve-|* * nir _ me-|* * no,|
 z2 A2 A2 A2 | A2 A2 c4 | c2 A2 c2 c2 | G2 G2 B2 B2 | F3 G AGAB | c4 B2 A2 | G4 F4 | A4 G2 F2 | %41
w: e quell' al-|mo de- co-|ro, che piu d'o-|gni the- sor si|coll' _ _ _ _ _|_ e prez-|* za,|m'in- vo- la|
 G2 G2 A4 | F4 E2 C2 | D4 E4 | D2 A2 G2 F2 | G2 G2 A4 | F4 E2 C2 | D4 E4 | D8- | D8- | D8 |] %51
w: l'alm' el cor|in pez- zi|pez- za,|m'in- vo- la l'alm'|el cor in|pez- zi spez-||za.|_||
V:3
 z8 | D,4 C,2 B,,2 | A,,3 B,, C,2 D,2 | C,6 A,,2 | B,,2 G,,2 A,,4 | D,8 | D,4 F,4 | D,4 C,2 C,2 | %8
w: |Le bian- che|man con so- ti-|let- te|di- * ta,|le|chio- me|d'or, e'l por-|
 D,6 C,2 | B,,2 A,,2 G,,4 | F,,4 C,4 | C,2 C,2 D,2 D,2 | C,4 C,2 C,2 | F,2 F,2 D,2 D,2 | %14
w: ta- ment'|al- te- *|ro, il|sot- til ci- gli'e|ne- ro, son|quell' ar- mi d'a-|
 G,3 F, E,D, C,2- | C,2 F,3 E,D,C, | D,2 A,,2 C,2 D,2 | A,,4 D,4 | z4 D,4 | A,,3 B,, C,2 A,,2 | %20
w: mor, _ _ _ _|_ ch'a- * * *|mar m'in- vi- *|* ta,|po-|scia'l di- vin e|
 G,,2 A,,2 B,,2 A,,2 | F,,2 G,,2 A,,2 B,,2 | G,,4 F,,4 | F,4 F,2 F,2 | D,4 C,4 | F,4 z4 | z8 | %27
w: bel can- di- do|se- * * *|* no,|in cui s'a-|ni- *|da,||
 z4 z2 E,2 | F,6 E,2 | D,2 D,2 C,4 | D,3 C,/B,,/ A,,G,,A,,B,, | C,4 B,,3 A,, | G,,4 F,,4 | %33
w: mi|fa di|ment' u- sat,|e _ _ _ _ _ _|_ ve- nir|me- no,|
 F,4 F,2 F,2 | D,2 D,2 C,4 | C,8 | z2 E,2 G,2 G,2 | D,2 D,2 F,2 F,2 | C,3 D, _E,2 F,2 | C,4 F,,4 | %40
w: poi quell' al-|mo de- co-|ro,|che piu d'o-|gni the- sor si|coll' _ _ e|prez- za,|
 F,4 E,2 D,2 | C,2 B,,2 A,,4 | D,4 C,2 A,,2 |"^#" B,,4 A,,4 | z2 F,2 E,2 D,2 | C,2 B,,2 A,,4 | %46
w: m'in- vo- la|l'alm' el cor|im pez- zi|spez- za,|prez- za m'in-|vo- la l'alm'|
 D,4 C,2 A,,2 | B,,4 A,,4 | z2 G,,2 G,,2 F,,2 | G,,4 D,4- | D,8 |] %51
w: el cor in|pez- zi,|in pez- zi|spez- za.|_|

